!!!COM: Beethoven
!!!OTL: 7 Variations on "God Save the King" in C Major
!!!Variation: Variation 7 c
**function	**harm	**kern	**kern
*	*	*clefF4	*clefG2
*	*	*k[]	*k[]
*M4/4	*M4/4	*M4/4	*M4/4
*C:	*C:	*C:	*C:
=120	=120	=120	=120
2T	C:maj	8cL	16eeLL
.	.	.	16cc
.	.	8C	16g
.	.	.	16ccJJ
.	.	8c	16eeLL
.	.	.	16cc
.	.	8dJ	16ff
.	.	.	16ccJJ
*	*	*clefG2	*
2T	C:maj/3	8eL	16ggLL
.	.	.	16cc
.	.	8d#	16ff#
.	.	.	16ccJJ
.	.	8e	16ggLL
.	.	.	16cc
.	.	8eJ	16gg#
.	.	.	16ccJJ
=121	=121	=121	=121
1P	F:maj	8fL	16aaLL
.	.	.	16cc
.	.	8e	16gg#
.	.	.	16ccJJ
.	.	8f	16aaLL
.	.	.	16cc
.	.	8eJ	16gg#
.	.	.	16ccJJ
.	.	8fL	16aaLL
.	.	.	16cc
.	.	8e	16gg#
.	.	.	16ccJJ
.	.	8f	16aaLL
.	.	.	16cc
.	.	8eJ	16gg#
.	.	.	16ccJJ
=122	=122	=122	=122
1P	F:maj	8f	16aaLL
.	.	.	16ff
.	.	8r	16cc
.	.	.	16aJJ
.	.	4r	16ffLL
.	.	.	16cc
.	.	.	16a
.	.	.	16fJJ
.	.	2r	16ccLL
.	.	.	16a
.	.	.	16f
.	.	.	16cJJ
.	.	.	16aLL
.	.	.	16f
.	.	.	16c
.	.	.	16AJJ
=123	=123	=123	=123
1P	F:maj	1r	16fLL
.	.	.	16c
.	.	.	16A
.	.	.	16FJJ
*	*	*	*clefF4
.	.	.	16cLL
.	.	.	16A
.	.	.	16F
.	.	.	16CJJ
.	.	.	16ALL
.	.	.	16F
.	.	.	16C
.	.	.	16AAJJ
.	.	.	16FLL
.	.	.	16C
.	.	.	16AA
.	.	.	16CJJ
=124	=124	=124	=124
!Adagio	!Adagio	!Adagio	!Adagio
*	*	*clefF4	*clefG2
*	*	*k[]	*k[]
*M3/4	*M3/4	*M3/4	*M3/4
*C:	*C:	*C:	*C:
4P	F:maj	4FFF 4FF	4r
4P	D:min	(4DD 4D	(4A 4d 4f
4P	G:min/b3	4BBB-) 4BB-	4G) 4d 4g
=125	=125	=125	=125
2.P	A:maj	2.AAA 2.AA 2.A	(4..c# 4..e
.	.	.	16d 16f
.	.	.	4e) 4g
=126	=126	=126	=126
*	*	*	*^
4P	E:dim7/b5	4C 4F#	(4a	4e-
4.P	E:dim7/b5	4.C 4.F#	4.a	4.e-
8P	G:min/b3	8BB- 8G	16ccLL	8d
.	.	.	16b-JJ)	.
=127	=127	=127	=127	=127
4P	F:maj/5	(4C 4c	(4a	4f
4P	C#:dim7	4C# 4B-	4g	4e
4P	D:min	4D) 4A	4f)	4f
=128	=128	=128	=128	=128
4P	G:min/b3	4BB-	(8.aL	8dL
.	.	.	.	8B-J
.	.	.	16gJk	.
*	*	*^	*	*
4P	F:maj/5	4A	4C	4.f	4c
4P	C#:dim7	4G	4C#	.	4B-
.	.	.	.	8e)	.
=129	=129	=129	=129	=129	=129
4P	D:min	8FL	8DL	8.fL	8AL
.	.	8FJ	8FFJ	.	8AJ
.	.	.	.	16dJk	.
4D	C:maj/5	4E	4GG	[4c	4G
4D	G:7	4D	4GGG' 4GG'	8.cL]	4F
.	.	.	.	16BJk	.
*	*	*v	*v	*	*
*	*	*	*v	*v
*-	*-	*-	*-
!!!EMD: Edited in humdrumR 0.7.0.3 on 2024-01-19
